X:1
T:Morgensang
T:Morgensang
T:af "Elverskud"
T:Niels W. Gade
T:B.S. Ingemann
C:Niels W. Gade
Z:B.S. Ingemann
%%score [ 1 2 3 4 ]
L:1/8
Q:1/2=80
M:4/4
K:C
V:1 treble-8 nm="T1"
V:2 treble-8 nm="T2"
V:3 bass nm="B1"
V:4 bass nm="B2"
V:1
!p!"^Andante con moto" C4 | !>!G4 E4 | (C4 E2) G2 | !>!c6 d2 | d4 G4 |!<(! c4 d4!<)! | e4 d4 | %7
w: I|Ø- sten|sti- * ger|So- len|op, den|spre- der|Guld på|
 c8- | c2 z2!p! G4 | A4 G4 | !>!c4 B4 |!<(! A6!<)!!>(! G2!>)! | G4 c4 |!<(! c4 d4!<)! | %14
w: Sky,|_ gaar|o- ver|Hav og|Bjer- ge-|top, gaar|o- ver|
!>(! e4 d4!>)! | c8- | c2 z2!p!"^dolce" e4 | e6 d2 | c4 e4 | !>!e6 d2 | c4 B4 |!<(! c4 e4!<)! | %22
w: Land og|By.|_ Den|kom- mer|fra den|fag- re|Kyst, den|fag- re|
!>(! d4 G4!>)! | c6 B2 | A4 A4 |!p! B8 | z2!f!!<(! G2 B2 d2!<)! |!>(! f6 e2!>)! | %28
w: Kyst, hvor|Pa- ra-|di- set|laa,|den brin- ger|Lys og|
 e2!<(! d2 c2 e2!<)! |!>(! !>!f6 e2!>)! | d4!p! d4 | c4 B4 | A4 c4 |!<(! (B4!>(! e4!<)! | %34
w: Liv, den brin- ger|Liv og|Lyst til|sto- re|og til|smaa, _|
 d4)!>)!!p! ^c4 | d8 | c4 c4 |!<(! B8-!<)! |!>(! !fermata!B4!>)!!f! G4 | A4 G4 | c4 c4 | c4 B4 | %42
w: _ til|sto-|re og|smaa.|_ Og|med Guds|Sol ud-|gaar fra|
 c4 G4 |!<(! c4 d4!<)! |!>(! e4 d4!>)! | c6 z2 | z4 G4 | !>!c4 A4 | G4 c4 | !>!e6 d2 | %50
w: Øst en|him- melsk|Glans paa|Jord|et|Glimt fra|Pa- ra-|di- sets|
!<(! d4 e4!<)! | g4!>(! f4 | e4!>)! d4 | c8- | c2 z2 |] %55
w: Kyst, hvor|Li- vets|A- bild|gror!|_|
V:2
!p! C4 | !>!G4 E4 | (C4 E2) G2 | !>!c6 B2 | B4 G4 |!<(! c4 c4!<)! | c4 B4 | G8- | G2 z2!p! G4 | %9
w: I|Ø- sten|sti- * ger|So- len|op, den|spre- der|Guld på|Sky,|_ gaar|
 A4 G4 | !>!c4 B4 |!<(! A6!<)!!>(! G2!>)! | G4 c4 |!<(! c4 c4!<)! |!>(! c4 B4!>)! | G8- | %16
w: o- ver|Hav og|Bjer- ge-|top, gaar|o- ver|Land og|By.|
 G2 z2!p!"^dolce" c4 | c6 B2 | A4 B4 | !>!c6 B2 | A4 ^G4 |!<(! A4 c4!<)! |!>(! B4 G4!>)! | G6 G2 | %24
w: _ Den|kom- mer|fra den|fag- re|Kyst, den|fag- re|Kyst, hvor|Pa- ra-|
 G4 ^F4 |!p! G8 | z2!f!!<(! G2 G2 G2!<)! |!>(! d6 c2!>)! | B2!<(! B2 c2 c2!<)! | %29
w: di- set|laa,|den brin- ger|Lys og|Liv, den brin- ger|
!>(! (!>!c4 B2) c2!>)! | G4!p! G4 | G4 G4 | G4 ^F4 |!<(! G8-!<)! |!>(! G4!>)!!p! A4 | A8 | A4 A4 | %37
w: Liv * og|Lyst til|sto- re|og til|smaa,|_ til|sto-|re og|
!<(! G8-!<)! |!>(! !fermata!G4!>)!!f! G4 | A4 G4 | c4 G4 | G4 G4 | G4 G4 |!<(! c4 c4!<)! | %44
w: smaa.|_ Og|med Guds|Sol ud-|gaar fra|Øst en|him- melsk|
!>(! c4 B4!>)! | G6 z2 | z4 G4 | !>!c4 A4 | G4 G4 | !>!c6 B2 |!<(! B4 c4!<)! | c4!>(! c4 | %52
w: Glans paa|Jord,|et|Glimt fra|Pa- ra-|di- sets|Kyst, hvor|Li- vets|
 c4!>)! B4 | G8- | G2 z2 |] %55
w: A- bild|gror!|_|
V:3
!p! C,4 | !>!G,4 E,4 | C,6 D,2 | !>!E,6 G,2 | G,4 G,4 |!<(! A,4 A,4!<)! | G,4 F,4 | E,8- | %8
w: I|Ø- sten|sti- ger|So- len|op, den|spre- der|Guld på|Sky,|
 E,2 z2!p! G,4 | A,4 G,4 | !>!C4 B,4 |!<(! A,6!<)!!>(! G,2!>)! | G,4 C4 |!<(! _B,4 A,4!<)! | %14
w: _ gaar|o- ver|Hav og|Bjer- ge-|top, gaar|o- ver|
!>(! G,4 F,4!>)! | E,8- | E,2 z2!p!"^dolce" E,4 | E,6 F,2 | E,4 ^G,4 | !>!A,6 E,2 | E,4 E,4 | %21
w: Land og|By.|_ Den|kom- mer|fra den|fag- re|Kyst, den|
!<(! E,4 ^F,4!<)! |!>(! G,4 E,4!>)! | E,6 D,2 | E,4 D,4 |!p! D,8 | z2!f!!<(! G,2 G,2 G,2!<)! | %27
w: fag- re|Kyst, hvor|Pa- ra-|di- set|laa,|den brin- ger|
!>(! (G,2 B,4) C2!>)! | G,2!<(! G,2 G,2 G,2!<)! |!>(! !>!G,6 G,2!>)! | G,4 z4 | z8 | z8 | z8 | %34
w: Lys * og|Liv, den brin- ger|Liv og|Lyst||||
 z4!p! G,4 | G,8 | ^F,4 F,4 |!<(! D,8-!<)! |!>(! !fermata!D,4!>)!!f! G,4 | A,4 G,4 | C4 E,4 | %41
w: til|sto-|re og|smaa.|_ Og|med Guds|Sol ud-|
 F,4 F,4 | E,4 G,4 |!<(! A,4 A,4!<)! |!>(! G,4 F,4!>)! | E,6 z2 | z4 G,4 | !>!C4 A,4 | G,4 E,4 | %49
w: gaar fra|Øst en|him- melsk|Glans paa|Jord,|et|Glimt fra|Pa- ra-|
 !>!G,6 G,2 |!<(! G,4 G,4!<)! | _B,4!>(! A,4 | G,4!>)! F,4 | E,8- | E,2 z2 |] %55
w: di- sets|Kyst, hvor|Li- vets|A- bild|gror!|_|
V:4
!p! C,4 | !>!G,4 E,4 | C,6 B,,2 | !>!A,,6 G,,2 | G,,4 G,4 |!<(! A,4 F,4!<)! | G,4 G,,4 | C,8- | %8
w: I|Ø- sten|sti- ger|So- len|op, den|spre- der|Guld på|Sky,|
 C,2 z2!p! G,4 | A,4 G,4 | !>!C4 B,4 |!<(! A,6!<)!!>(! G,2!>)! | G,4 C,4 |!<(! E,4 F,4!<)! | %14
w: _ gaar|o- ver|Hav og|Bjer- ge-|top, gaar|o- ver|
!>(! G,4 G,,4!>)! | C,8- | C,2 z2!p!"^dolce" C,4 | C,6 D,2 | E,4 E,4 | !>!A,,4 A,,4 | A,,4 D,4 | %21
w: Land og|By.|_ Den|kom- mer|fra den|fag- re|Kyst, den|
!<(! C,4 A,,4!<)! |!>(! B,,4 E,4!>)! | A,,6 B,,2 | C,4 D,4 |!p! G,,8 | z2!f!!<(! G,2 D,2 B,,2!<)! | %27
w: fag- re|Kyst, hvor|Pa- ra-|di- set|laa,|den brin- ger|
!>(! (G,,2 G,4) G,2!>)! | F,2!<(! F,2 E,2 E,2!<)! |!>(! !>!D,6 C,2!>)! | B,,4!p! B,,4 | E,4 D,4 | %32
w: Lys * og|Liv, den brin- ger|Liv og|Lyst til|sto- re|
 C,4 D,4 |!<(! (E,4!<)!!>(! C,4 | B,,4)!>)!!p! E,4 | D,8 | D,4 D,4 |!<(! G,,8-!<)! | %38
w: og til|smaa, _|_ til|sto-|re og|smaa.|
!>(! !fermata!G,,4!>)!!f! G,,4 | A,,4 G,,4 | C,4 E,4 | D,4 G,,4 | C,4 G,4 |!<(! A,4 F,4!<)! | %44
w: _ Og|med Guds|Sol ud-|gaar fra|Øst en|him- melsk|
!>(! G,4 G,,4!>)! | C,4 C,4 | G,4 E,4 | !>!C,4 F,4 | E,4 C,4 | !>!G,,4 G,4 |!<(! G,4 C,4!<)! | %51
w: Glans paa|Jord, et|Glimt, et|Glimt fra|Pa- ra-|di- sets|Kyst, hvor|
 E,4!>(! F,4 | G,4!>)! G,,4 | C,8- | C,2 z2 |] %55
w: Li- vets|A- bild|gror!|_|

